X:305
T: Greenland Whale Fisheries
M:4/4
R:song
L:1/8
Z:added by Alf warnock alf0@rogers.com - http://members.rogers.com/alf0
K:D
|"D"D4 D4| A,4 F4| "A7"E4 D2C2|"D"D6F2|
"G"G4 G4| "D"F4 E2D2|"A7"E8-|E4 F2G2|
"D"A4 F2E2|D4 E2F2|"G"G2F2 E2D2|"Em"B,8|
"D"D6E2|F4 F4| "A7"E4 D2C2|"D"D4 B,4|
"D"A,8| D6E2|F4 F4| "A7"E4 D2C2|"D"D8|z8|]
